fa/users-rectangle.svg

<svg xmlns="http://www.w3.org/2000/svg" viewBox="0 0 640 512" height="1em" width="1em">
  <path d="M223.8 176c0 26.5-21.5 48-48 48s-48-21.5-48-48 21.5-48 48-48 48 21.5 48 48zM96 309.3c0-29.4 23.9-53.3 53.3-53.3h69.4c9.1 0 17.8 2.3 25.3 6.4-32.4 11.9-57.2 39.5-65.2 73.6h-56.1c-14.8 0-26.7-11.9-26.7-26.7zm299.1-46.9c8.4-4.1 17.1-6.4 26.2-6.4h69.4c29.4 0 53.3 23.9 53.3 53.3 0 14.8-11.9 26.7-26.7 26.7h-56.1c-8-34.1-32.8-61.7-66.1-73.6zM372 288.1c26 5.3 47.3 23.6 55.9 47.9 2.7 7.5 4.1 15.6 4.1 24 0 13.3-10.7 24-24 24H232c-13.3 0-24-10.7-24-24 0-8.4 1.4-16.5 4.1-24 8.6-24.3 29-42.6 55-47.9 4.8.2 8.8-.1 12.9-.1h80c4.1 0 8.1.3 12 .1zM512 176c0 26.5-21.5 48-48 48s-48-21.5-48-48 21.5-48 48-48 48 21.5 48 48zm-256 16c0-35.3 28.7-64 64-64s64 28.7 64 64-28.7 64-64 64-64-28.7-64-64zM544 0c53 0 96 42.98 96 96v320c0 53-43 96-96 96H96c-53.02 0-96-43-96-96V96C0 42.98 42.98 0 96 0h448zM64 416c0 17.7 14.33 32 32 32h448c17.7 0 32-14.3 32-32V96c0-17.67-14.3-32-32-32H96c-17.67 0-32 14.33-32 32v320z"/>
</svg>

<svg xmlns="http://www.w3.org/2000/svg" viewBox="0 0 640 512" height="1em" width="1em">
  <path d="M223.8 176C223.8 202.5 202.3 224 175.8 224C149.3 224 127.8 202.5 127.8 176C127.8 149.5 149.3 128 175.8 128C202.3 128 223.8 149.5 223.8 176zM96 309.3C96 279.9 119.9 256 149.3 256H218.7C227.8 256 236.5 258.3 244 262.4C211.6 274.3 186.8 301.9 178.8 336H122.7C107.9 336 96 324.1 96 309.3H96zM395.1 262.4C403.5 258.3 412.2 256 421.3 256H490.7C520.1 256 544 279.9 544 309.3C544 324.1 532.1 336 517.3 336H461.2C453.2 301.9 428.4 274.3 395.1 262.4H395.1zM372 288.1C398 293.4 419.3 311.7 427.9 336C430.6 343.5 432 351.6 432 360C432 373.3 421.3 384 408 384H232C218.7 384 208 373.3 208 360C208 351.6 209.4 343.5 212.1 336C220.7 311.7 241.1 293.4 267.1 288.1C271.9 288.3 275.9 288 280 288H360C364.1 288 368.1 288.3 372 288.1V288.1zM512 176C512 202.5 490.5 224 464 224C437.5 224 416 202.5 416 176C416 149.5 437.5 128 464 128C490.5 128 512 149.5 512 176zM256 192C256 156.7 284.7 128 320 128C355.3 128 384 156.7 384 192C384 227.3 355.3 256 320 256C284.7 256 256 227.3 256 192zM544 0C597 0 640 42.98 640 96V416C640 469 597 512 544 512H96C42.98 512 0 469 0 416V96C0 42.98 42.98 0 96 0H544zM64 416C64 433.7 78.33 448 96 448H544C561.7 448 576 433.7 576 416V96C576 78.33 561.7 64 544 64H96C78.33 64 64 78.33 64 96V416z"/>
</svg>
